X:3045
T:Jockey To The Fair. JMT101
O:england
M:6/8
L:1/8
Q:110
S:J.Moore,Tyneside,1841.(71a)
R:Jig
A:Northumbria
K:G
D|G2AB2c|d2gd2c|BdG GFG|A/-B/.c.BA2d|d^cd def|fafe2g|fed Ad^c|d3d2:|
|:d|afd afd|c2cB2c|dgd dgd|c2cB2B|e2fg2f|e2fB2e|e^deB2A|
G2FE2F|G2GG2B|d3g3|dBGA2B|E2FG2A|B2gBcA|G3G2:|]


